X:1
T:Title
L:1/8
Q:1/4=100
M:4/4
K:Eb
V:1 treble nm="Grand Piano"
V:1
 G3 F GFED | E3 D C4 | G3 F GFEF | D8 | G3 F GFED | FEDC G4 | c3 B dcBA | G4 C4 | c3 B dcBA | G8 | %10
w: ????~???? * * * * *||||||||||
 A3 G AGAG | c4 G4 | F3 D EDEF | G8 | A3 G AGFE | F2 E2 D4 | G3 D FEDE | C8 |] %18
w: ||||||||

